Improvs/dist/images/ryan_template/step5.svg

<svg width="20" height="20" viewBox="0 0 20 20" fill="none" xmlns="http://www.w3.org/2000/svg">
<path d="M18.3332 8.33329V12.5C18.3332 16.6666 16.6665 18.3333 12.4998 18.3333H7.49984C3.33317 18.3333 1.6665 16.6666 1.6665 12.5V7.49996C1.6665 3.33329 3.33317 1.66663 7.49984 1.66663H11.6665" stroke="#00091D" stroke-width="1.5" stroke-linecap="round" stroke-linejoin="round"/>
<path d="M18.3332 8.33329H14.9998C12.4998 8.33329 11.6665 7.49996 11.6665 4.99996V1.66663L18.3332 8.33329Z" stroke="#00091D" stroke-width="1.5" stroke-linecap="round" stroke-linejoin="round"/>
<path d="M5.8335 10.8334H10.8335" stroke="#00091D" stroke-width="1.5" stroke-linecap="round" stroke-linejoin="round"/>
<path d="M5.8335 14.1666H9.16683" stroke="#00091D" stroke-width="1.5" stroke-linecap="round" stroke-linejoin="round"/>
</svg>

<svg width="20" height="20" fill="none" xmlns="http://www.w3.org/2000/svg"><path d="M18.333 8.333V12.5c0 4.167-1.666 5.833-5.833 5.833h-5c-4.167 0-5.833-1.666-5.833-5.833v-5c0-4.167 1.666-5.833 5.833-5.833h4.166" stroke="#00091D" stroke-width="1.5" stroke-linecap="round" stroke-linejoin="round"/><path d="M18.333 8.333H15c-2.5 0-3.334-.833-3.334-3.333V1.667l6.667 6.666zm-12.5 2.5h5m-5 3.334h3.334" stroke="#00091D" stroke-width="1.5" stroke-linecap="round" stroke-linejoin="round"/></svg>
